X: 29811
T: O'Connell's Farewell To Dublin
R: reel
M: 4/4
K: Adorian
G2|:"Am"AcBG A2 B/c/d|eaaf gedB|"G"G2 GE GEDE|"Em"GABG AGEG|
"Am"AcBG A2 B/c/d|eaaf gedA|"G"B/c/d af gfed|1 "Em"gedB "Am"A3 G:|2 "Em"gedB "Am"A3 B||
|:"Am"c2 cB cd"C"eg|g2 ag ge d2|"G"dBGB d4|"Em"dBGB d2 dB|
"Am"c2 cB cdeg|"C"g2 ag gedA|"G"B/c/d af gfed|1 "Em"gedB "Am"A3 B:|2 "Em"gedB "Am"A2 B/c/d||
|:"Am"eaag aaab|"C"c'2 ba agef|"G"gbaf gece|"Em"gbaf gedf|
"Am"eaag aaab|"C"c'2 ba aged|"G"B/c/d af gfed|1 "Em"gedB "Am"A2 B/c/d:|2 "Em"gedB "Am"A3 B||
|:"Am"ceAB ceAc|"G"B2 GB dBGB|"F"ceAB ceAc|"G"B/c/d af "Em"gedB|
"Am"ceAB ceAc|"G"B2 GB dBGA|"F"B/c/d af "G"gfed|1 "Em"gedB "Am"A3 B:|2 "Em"gedB "Am"A2||

